!!!!SEGMENT: pl-cz--ii-87--001-009_zientarski-romuald-teodor--msza-swieta-benedictus.krn
!!!cenid: 18xx:1170
!!!COM: Zientarski, Romuald Teodor
!!!COM-rismID: pe30001080
!!!CDT: ~1830-1874
!!!CNT: Polish
!!!OPR: Msza Święta
!!!OTL: Benedictus
!!!OMV: 009
!!!PDT: 1888
!!!AGN: Sacred; Mass
!!!YEC: Copyright 2022 Narodowy Instytut Fryderyka Chopina (https://polishscores.org)
!!!YEM: License CC-BY-4.0 (https://creativecommons.org/licenses/by/4.0)
!!!SMS-siglum: PL-CZ
!!!SMS-shelfmark: II-87
!!!SMS-shelfwork: 001-009 M
!!!SMS-variant:
!!!SMS-altvar:
!!!NIFC-rismSourceID: 300033223
!!!NIFC-rismChildID: 300033224
!!!NIFC-islandoraID: pl-cz:33881
!!!URL-pdf-islandora: https://repozytorium.nifc.pl/islandora/object/pl-cz%3A33881/datastream/PDF/view
!!!URL-scan: https://polish.musicsources.pl/pl/lokalizacje/galeria/rekopisy/6814/1 @EN{Scan on Polish Music Sources Website} @PL{Skany w portalu Dziedzictwo Muzyki Polskiej w otwartym dostępie}
!!!IIIF:
!!!ONB-nifc: UWAGA: części Mszy: Kyrie, Gloria, Graduale, Credo, Et incarnatus, Et resurrexit, Offertorium, Sanctus, Benedictus, Agnus Dei, Benedictio
!!!OMD: Moderatto
!!!AIN: 1 organ 1 vox
!!!key: E-
**kern	**kern	**dynam	**kern	**text	**dynam
*part3	*part2	*	*part1	*	*
*staff3	*staff2	*	*staff1	*	*
*I"[Organo]	*	*	*I"[Voice]	*	*
*Iorgan	*	*	*Ivox	*	*
*ICklav	*	*	*ICvox	*	*
*IGacmp	*	*	*IGsolo	*	*
*clefF4	*clefG2	*	*clefG2	*	*
*k[b-e-a-]	*k[b-e-a-]	*	*k[b-e-a-]	*	*
*E-:	*E-:	*	*E-:	*	*
*M2/4	*M2/4	*	*M2/4	*	*
=1	=1	=1	=1	=1	=1
*^	*^	*	*	*	*
!	!	!	!	!LO:DY:rj	!	!	!LO:DY:b:rj
4B-/	2E-\	4g/	2e-\	p	2r	.	p
8.G/L	.	8.b-/L	.	.	.	.	.
16B-/Jk	.	16g/Jk	.	.	.	.	.
=2	=2	=2	=2	=2	=2	=2	=2
4A-/	2E-\	4cc/	4e-\	.	2r	.	.
4F/	.	4a-/	4d\	.	.	.	.
=3	=3	=3	=3	=3	=3	=3	=3
4F/	2BB-\	4f/	4f\	.	2r	.	.
16F/LL	.	16f/LL	8d\L	.	.	.	.
16A-/	.	16cc/	.	.	.	.	.
16G/	.	16b-/	16e-\L	.	.	.	.
16F/JJ	.	16a-/JJ	16d\JJ	.	.	.	.
*	*	*v	*v	*	*	*	*
=4	=4	=4	=4	=4	=4	=4
2E-\	(<4E-/	8gL 8e- 8B-/	.	2r	.	.
.	.	8gJ 8e- 8B-/	.	.	.	.
.	4EE-/)	8r	.	.	.	.
.	.	8g 8e- 8B-/	.	.	.	.
*v	*v	*	*	*	*	*
=5||	=5||	=5||	=5||	=5||	=5||
4E- 4EE-/	4g 4e- 4B-/	.	4g/	Gdy	.
4G 4GG/	8.b- 8.g\	.	8.b-\	na-	.
.	16g 16e- 16B-/	.	16g/	-mi	.
=6	=6	=6	=6	=6	=6
4A- 4AA-\	4cc 4a- 4c\	.	4cc/	wstrzą-	.
4F 4FF/	4a- 4f 4c/	.	4a-/	-sa	.
=7	=7	=7	=7	=7	=7
4D 4DD/	4f 4d 4B-/	.	4f/	bo-	.
4BB-/	16fLL 16d 16B-/	.	16f/	-leśc,	.
.	16ccJJ 16a- 16d/	.	16cc/	.	.
.	16.b- 16.g 16.e-\	.	16.b-\	cier-	.
.	32a- 32f 32B-/	.	32a-/	.	.
!!LO:LB:g=original
=8	=8	=8	=8	=8	=8
4BBn/	4a- 4f 4d/	.	4a-/	-pie-	.
4C/	8g 8e- 8c/	.	8g/	-nia	.
.	8r	.	8r	.	.
=9	=9	=9	=9	=9	=9
4C/	4g 4e- 4c/	.	4g/	A	.
4D 4DD/	8.b- 8.d 8.B-\	.	8.b-\	w_o-	.
.	16b- 16d\	.	16b-\	-ku	.
=10	=10	=10	=10	=10	=10
*	*^	*	*	*	*
4E- 4EE-/	8.b-/	8.g 8.B-X\	.	8.b- 8.g/	Gorz-	.
.	16g 16B-/	16ryy	.	16g/	.	.
4En 4EEn/	8g/	8ryy	.	8g/	.	.
!	!	!LO:SIC:v:n=3:o=8en 8c 8F\	!	!	!	!
.	8g/	8En\	.	8g/	-ku	.
*	*v	*v	*	*	*	*
=11	=11	=11	=11	=11	=11
4F 4FF/	(<8fL 8d 8B-/	.	8f/	za-	.
.	8b-J 8f 8d 8B-/)	.	8b-/	-wis-	.
4F 4FF/	8.dd 8.f/	.	8.dd/	.	.
.	16cc 16an/	.	16cc/	-nie	.
=12	=12	=12	=12	=12	=12
*^	*	*	*	*	*
4.F/	4.BB-\	2b- 2B-/	.	2b-/	łza	.
8r	8AA-\	.	.	.	.	.
*v	*v	*	*	*	*	*
=13	=13	=13	=13	=13	=13
4G-X 4GG-X/	4b- 4g-X 4d-X\	.	4b-/	Wten-	.
4G- 4GG-/	8.b- 8.g- 8.d-\	.	8.b-/	-czas	.
.	16a- 16d-X\	.	16a-\	o	.
!!LO:PB:g=original
=14	=14	=14	=14	=14	=14
*	*^	*	*	*	*
4G-X 4GG-X/	4b- 4g-X 4d-X/	4ryy	.	4b-/	wten-	.
4G- 4GG-/	8.dd-X/	8.b- 8.g- 8.d-\	.	8.dd-X/	-czas,	.
.	16cc-X/	16g- 16dn\	.	16cc-X/	o	.
*	*v	*v	*	*	*	*
=15	=15	=15	=15	=15	=15
2Gn 2GGn/	4b- 4gn 4d\	.	4b-/	Bo-	.
.	8b- 8g 8d\	.	8b-/	-że	.
.	8r	.	8r	.	.
=16	=16	=16	=16	=16	=16
!LO:N:vis=2	!	!	!	!	!
(<4D-X/	8dd-XL 8f/	.	8dd-X/	Swo-	.
.	8cc-XJ 8e-/	.	8cc-X/	-je	.
4DD-X\)	8.b- 8.d-X/	.	8.b-/	stwo-	.
.	16cc- 16a- 16c-X/	.	16a-/	.	.
=17	=17	=17	=17	=17	=17
*^	*	*	*	*	*
8GG-X/L	8ryy	4cc-X 4e-\	.	4cc-X/	-rze-	.
8D-X/J	4D-\	.	.	.	.	.
8G-yL 8GG-/	.	8b- 8d-X\	.	8b-\	-nie	.
8FJ 8FF/	8ryy	8r	.	8r	.	.
*v	*v	*	*	*	*	*
=18	=18	=18	=18	=18	=18
*	*^	*	*	*	*
4E- 4EE-/	4b-/	8g-X\L	.	4b- 4g-X/	w_to-	.
.	.	8f\J	.	.	.	.
8E-L 8FF/	8.b- 8.e-/	8.ryy	.	8.b-/	-bie	.
8D-X/J	.	.	.	.	.	.
.	16ee-/	16d-X\	.	16ee-/	ach	.
=19	=19	=19	=19	=19	=19	=19
!LO:N:vis=1	!	!	!	!	!	!
2C-X/	4ee-/	4a-\	.	4ee-/	w_to-	.
.	4ee-/	4cc-X\	.	4ee-/	-bie	.
=20	=20	=20	=20	=20	=20	=20
2c-X 2C-y\	4ee-/	4cc-X\	.	4ee-/	u-	.
!	!	!	!	!LO:TX:a:i:t=riter	!	!
.	16r	16ryy	.	8ff/	-cie-	.
.	8ff/	16cc-\LL	.	.	.	.
.	.	16cc-\	.	16cc\	.	.
.	16ee-/	16bn\JJ	.	16ee-/	-czkę	.
*	*v	*v	*	*	*	*
!!LO:LB:g=original
=21	=21	=21	=21	=21	=21
4B- 4BB-\	4dd 4b- 4d;\	.	4dd/	ma	.
4r	8r	.	8r	.	.
.	8b-\	.	8b-/	I	.
=22	=22	=22	=22	=22	=22
*	*^	*	*	*	*
2E- 2EE-/	4.ee- 4.b- 4.g/	4.ryy	.	4.ee-/	gdy	.
.	16cc/LL	16gLL 16e-\	.	16cc/	jej	.
.	16b-/JJ	16gJJ 16e-\	.	16b-/	.	.
*	*v	*v	*	*	*	*
=23	=23	=23	=23	=23	=23
2E- 2EE-/	4b- 4g 4e-/	.	4b-/	szu-	.
.	4g 4e- 4B-/	.	4g/	-ka	.
=24	=24	=24	=24	=24	=24
4F 4FF/	8f 8d 8A-/	.	8f/	jak	.
.	4cc 4a- 4d/	.	4cc^>/	wdzię-	.
4BB-/	.	.	.	.	.
.	16b-/LL	.	16b-/LL	-czne	.
.	16an/JJ	.	16an/JJ	.	.
=25	=25	=25	=25	=25	=25
4E- 4EE-/	4b- 4g 4e-/	.	4b-/	dzie-	.
4r	16gLL 16e- 16B-/	.	16g/	-cie	.
!	!LO:N:vis=16.	!	!LO:N:vis=16.	!	!
.	8b-JJ 8g/	.	8b-/	.	.
.	32g\LLL	.	32g\LLL	.	.
.	32f\JJJ	.	32f\JJJ	.	.
=26	=26	=26	=26	=26	=26
4C 4CC/	4en 4B- 4G/	.	4en/	tro-	.
4r	4c 4G 4Eny/	.	4c/	-ski	.
!!LO:LB:g=original
=27	=27	=27	=27	=27	=27
8FF/L	8b- 8f 8c/	.	8b-/	w_mod-	.
8AA-/J	4a- 4f 4c/	.	4a-/	-lit-	.
4BB-/	.	.	.	.	.
.	16fLL 16c 16A-/	.	16f/	-wy	.
.	16d/JJ	.	16d/	.	.
=28	=28	=28	=28	=28	=28
4E- 4EE-/	4e- 4G/	.	4e-/	głos	.
4E- 4EE-/	4g 4e- 4B-/	.	4g/	.	.
=29	=29	=29	=29	=29	=29
4D 4DD/	8b- 8f 8B-\	.	8b-/	pro-	.
.	8b- 8f 8B-\	.	8b-/	-mię	.
4C 4CC/	4ee- 4cc 4g/	.	4ee-/	ła-	.
=30	=30	=30	=30	=30	=30
*	*^	*	*	*	*
4c 4C\	4ee-/	4g 4e-\	.	4ee-/	-ski	.
8B-L 8D 8BB-\	4dd/	8b-\	.	8dd/	bły-	.
8A-XJ 8AA-X\	.	8a-X\	.	8a-X/	.	.
=31	=31	=31	=31	=31	=31	=31
4G 4GG/	4ee-\	4g\	.	4ee-\	-snie	.
4D 4DD/	8.ff/	8.b-\	.	8.ff/	na	.
.	16ff/	16b-\	.	16ff/	.	.
=32	=32	=32	=32	=32	=32	=32
8E-L 8EE-/	4gg/	4ee-\	.	4gg/	swie-	.
8GJ 8GG/	.	.	.	.	.	.
8B- 8BB-\	4ryy	8ff 8dd 8b-\	.	8ff\	-cie	.
16ryy	.	16r	.	16r	.	.
16Bn 16BBn\	.	16ff 16dd 16bn\	.	16ff 16dd 16bn\	i	.
*	*v	*v	*	*	*	*
!!LO:LB:g=original
=33	=33	=33	=33	=33	=33
4c 4C\	8ee- 8cc 8g\	.	8ee-/	nik-	.
.	8r	.	8r	.	.
4G 4GG/	8bn 8g 8f\	.	8bn/	-nie	.
.	8r	.	8r	.	.
=34	=34	=34	=34	=34	=34
4A- 4AA-\	4dd 4a- 4e-/	.	4dd/	każ-	.
4A- 4AA-\	8cc 8a- 8e-/	.	8cc/	-dy	.
.	16r	.	16r	.	.
.	16cc 16a- 16e-/	.	16cc/	i	.
=35	=35	=35	=35	=35	=35
4An 4AAn\	8.ff 8.cc 8.an\	.	8.ff/	nik-	.
.	16ee- 16cc 16a\	.	16ee-/	-nie	.
!	!LO:N:vis=8	!	!LO:TX:a:i:t=rall	!	!
8B-L 8BB-\	8.dd 8.b-\	.	8.dd\	każ-	.
8A-XJ 8AA-X\	.	.	.	.	.
!	!	!	!LO:N:vis=8	!	!
.	16ee- 16a-X 16f\	.	16dd\	-dy	.
=36	=36	=36	=36	=36	=36
4.G 4.GG/	8ee- 8g\	.	8ee-/	przy-	.
.	4gg 4ee- 4g/	.	4gg/	.	.
8F 8FF/	8ff 8dd 8a-/	.	8ff/	-kry	.
=37	=37	=37	=37	=37	=37
*	*^	*	*	*	*
4E- 4EE-/	4ee-/	8b- 8g\	.	4ee-/	cios.	.
.	.	(>8g\L	.	.	.	.
4r	4ryy	8b-\	.	4r	.	.
.	.	8ff\J)	.	.	.	.
=38	=38	=38	=38	=38	=38	=38
*^	*	*	*	*	*	*
8r	2r	8gg/L	8r	.	2r	.	.
8Bn/	.	8ff/	8a-\L	.	.	.	.
8c/L	.	8ee-/	8g\	.	.	.	.
8G/J	.	8dd/J	8f\J	.	.	.	.
!!LO:PB:g=original
=39	=39	=39	=39	=39	=39	=39	=39
8A-/	8r	8cc/L	8e-\L	.	2ryy	.	.
[>4c/	(<8En\	8b-/J	8g\J	.	.	.	.
.	8F\L)	4a-/	4f\	.	.	.	.
8c/]	8E-X\J	.	.	.	.	.	.
=40	=40	=40	=40	=40	=40	=40	=40
2B-/	4D\	4a-/	4f\	.	2ryy	.	.
.	8E-\L	8g/L	4e-\	.	.	.	.
.	8D-X\J	8b-/J	.	.	.	.	.
*	*	*v	*v	*	*	*	*
=41	=41	=41	=41	=41	=41	=41
8A-/L	8C\L	8a-/L	.	2ryy	.	.
8An/J	8C-X\J	8f#X/	.	.	.	.
4B-/	4BB-\	8g/	.	.	.	.
.	.	8g-X/J	.	.	.	.
=42	=42	=42	=42	=42	=42	=42
*	*	*^	*	*	*	*
(<8B-/L	2BB-\	4f/	8e-\L	.	2ryy	.	.
8A-/	.	.	8d\J	.	.	.	.
8G/	.	8b-/L	4e-\	.	.	.	.
8F#X/J)	.	8an/J	.	.	.	.	.
*	*	*v	*v	*	*	*	*
=43	=43	=43	=43	=43	=43	=43
!	!LO:N:vis=4	!	!	!	!	!
8Fn/L	4.BB-\	8a-/L	.	2ryy	.	.
8En/	.	8g/	.	.	.	.
8F/	.	8a-/	.	.	.	.
8A-/J	8AA-\	8f/J	.	.	.	.
=44	=44	=44	=44	=44	=44	=44
*	*	*^	*	*	*	*
!	!	!LO:TX:a:t=rall.	!	!	!	!	!
8G/L	2BB-\	4.e-/	8.B-\L	.	2ryy	.	.
8F#X/J	.	.	.	.	.	.	.
!	!	!	!LO:N:acc=#	!	!	!	!
.	.	.	16An\Jk	.	.	.	.
4Fn\	.	.	4A-X\	.	.	.	.
.	.	8e-/	.	.	.	.	.
*	*	*v	*v	*	*	*	*
=45	=45	=45	=45	=45	=45	=45
2B- 2G;/	2E- 2EE-\	2e-;/	.	2ryy	.	.
*v	*v	*	*	*	*	*
==	==	==	==	==	==
*-	*-	*-	*-	*-	*-
!!!system-decoration: <s1>(s2,s3)
!!!RDF**kern: > = above
!!!RDF**kern: < = below
!!!ENC: Tomasz Grochalski
!!!END: 2020-11-07
!!!ENC: Andrzej Kubiczek
!!!END: 2021-11-14
